packages/icons/src/save-cache-s3-ci-step-inverse.svg

<svg fill="none" viewBox="0 0 40 40" xmlns="http://www.w3.org/2000/svg"><path d="m33.7949 36.1154 5.205 1.2621.0082-.0131-.0002-9.7532-.0082-.0087-5.2048 1.2602z" fill="#d9dae6"/><path d="m36.0652 35.6552-2.2702-.4165-2.2696.4165 2.2668.6328z" fill="#f3f3fa"/><path clip-rule="evenodd" d="m36.065 29.345-2.2701-.5617v-3.7833l2.2701 1.1349zm-7.4752 8.0297 5.3507-1.2736v-1.7236l2.1245-.2704v-3.2098l-2.1245-.2665v-1.7824l-5.3507-1.2459zm7.4751 1.4906-2.27 1.1346v-3.7831l2.27-.5614zm3.9351-10.7628-1.0002-.5v9.7749l1.0002-.4997z" fill="#fff" fill-rule="evenodd"/><path clip-rule="evenodd" d="m31.525 29.345 2.2696-.5617.0184-.0057v-3.7625l-.0184-.0151-2.2696 1.1349zm-3.9352-1.2425.9998-.5.006.0069v9.7581l-.006.0072-.9998-.497zm6.2048 6.2935-2.2696-.2889v-3.2098l2.2696-.2848.027.0291-.0127 3.7215zm-2.2698 4.4694 2.2698 1.1346.0244-.0655.009-3.6797-.0334-.0379-2.2698-.5615z" fill="#d9dae6" fill-rule="evenodd"/><path d="m36.0652 29.345-2.2702.4137-2.2696-.4137 2.2667-.5942z" fill="#b0b1c4"/><path clip-rule="evenodd" d="m20.4015 4.45083c-.0946-.12026-.2413-.19084-.397-.19094s-.3025.0703-.3972.19045l-3.1299 3.9703c-.1681.21318-.1266.5185.0926.68195s.5331.12313.7012-.09005l2.2329-2.83245v8.91821c0 .2687.2239.4864.5001.4864s.5001-.2177.5001-.4864v-8.91516l2.2241 2.8289c.1678.21339.4817.2541.7011.09093s.2613-.46844.0935-.68183zm-4.0215 8.60947c.2738-.0353.4664-.2797.4301-.546-.0362-.2663-.2876-.4537-.5614-.4184-2.0232.2605-3.7857.7289-5.0581 1.3482-.6357.3094-1.1718.6674-1.55481 1.0752-.3857.4106-.63579.8947-.63579 1.4358v13.213c0 .6988.41373 1.297 1.0048 1.7768.5938.4821 1.4232.8944 2.4042 1.2312 1.9664.6753 4.6503 1.0838 7.591 1.0838.7003 0 1.3852-.0232 2.0486-.0674.2756-.0184.4837-.2506.4648-.5186-.019-.268-.2577-.4703-.5332-.452-.6404.0428-1.3025.0652-1.9802.0652-2.8582 0-5.4242-.3986-7.258-1.0283-.9192-.3156-1.6275-.6801-2.0963-1.0607-.4716-.3829-.6455-.7332-.6455-1.03v-4.9372l.0046.0036c.5938.4821 1.4232.8945 2.4042 1.2313 1.9664.6752 4.6503 1.0837 7.591 1.0837 2.9408 0 5.6246-.4085 7.591-1.0837.981-.3368 1.8104-.7492 2.4042-1.2313l.0046-.0036v.3259c0 .2686.2239.4864.5001.4864s.5001-.2178.5001-.4864v-8.6017c0-1.0641-.9424-1.8938-2.1421-2.4872-1.2446-.6156-2.9695-1.0843-4.9527-1.3517-.2736-.0369-.5262.1489-.5641.415s.1531.5117.4267.5486c1.9182.2586 3.5249.7053 4.6367 1.2552 1.1566.5721 1.5953 1.1579 1.5953 1.6201 0 .2968-.1739.6471-.6455 1.03-.4688.3806-1.1771.7451-2.0963 1.0608-1.8337.6296-4.3998 1.0282-7.258 1.0282s-5.4242-.3986-7.258-1.0282c-.9192-.3157-1.6275-.6802-2.0963-1.0608-.4716-.3829-.6455-.7332-.6455-1.03 0-.2318.1041-.4923.3741-.7797.2726-.2902.6937-.5838 1.2639-.8613 1.1396-.5547 2.7841-1.0018 4.7418-1.2538zm-6.3798 9.3975v-4.7296l.0046.0037c.5938.4821 1.4232.8944 2.4042 1.2313 1.9664.6752 4.6503 1.0837 7.591 1.0837 2.9408 0 5.6246-.4085 7.591-1.0837.981-.3369 1.8104-.7492 2.4042-1.2313l.0046-.0037v4.7296c0 .2967-.1739.6471-.6455 1.0299-.4688.3806-1.1771.7452-2.0963 1.0608-1.8337.6297-4.3998 1.0283-7.258 1.0283s-5.4242-.3986-7.258-1.0283c-.9192-.3156-1.6275-.6802-2.0963-1.0608-.4716-.3828-.6455-.7332-.6455-1.0299zm2.5183-1.3165c0 .3342-.2786.6052-.6223.6052-.3436 0-.6222-.271-.6222-.6052s.2786-.6052.6222-.6052c.3437 0 .6223.271.6223.6052zm0 6.6869c0 .3343-.2786.6052-.6223.6052-.3436 0-.6222-.2709-.6222-.6052 0-.3342.2786-.6051.6222-.6051.3437 0 .6223.2709.6223.6051z" fill="#fff" fill-rule="evenodd"/></svg>

<svg viewBox="0 0 40 40" fill="none" xmlns="http://www.w3.org/2000/svg">
<path d="M33.7949 36.1154L38.9999 37.3775L39.0081 37.3644L39.0079 27.6112L38.9997 27.6025L33.7949 28.8627V36.1154Z" fill="#D9DAE6"/>
<path d="M36.0652 35.6552L33.795 35.2387L31.5254 35.6552L33.7922 36.288L36.0652 35.6552Z" fill="#F3F3FA"/>
<path fill-rule="evenodd" clip-rule="evenodd" d="M36.065 29.345L33.7949 28.7833V25L36.065 26.1349V29.345ZM28.5898 37.3747L33.9405 36.1011V34.3775L36.065 34.1071V30.8973L33.9405 30.6308V28.8484L28.5898 27.6025V37.3747ZM36.0649 38.8653L33.7949 39.9999V36.2168L36.0649 35.6554V38.8653ZM40 28.1025L38.9998 27.6025V37.3774L40 36.8777V28.1025Z" fill="white"/>
<path fill-rule="evenodd" clip-rule="evenodd" d="M31.525 29.345L33.7946 28.7833L33.813 28.7776V25.0151L33.7946 25L31.525 26.1349V29.345ZM27.5898 28.1025L28.5896 27.6025L28.5956 27.6094V37.3675L28.5896 37.3747L27.5898 36.8777V28.1025ZM33.7946 34.396L31.525 34.1071V30.8973L33.7946 30.6125L33.8216 30.6416L33.8089 34.3631L33.7946 34.396ZM31.5248 38.8654L33.7946 40L33.819 39.9345L33.828 36.2548L33.7946 36.2169L31.5248 35.6554V38.8654Z" fill="#D9DAE6"/>
<path d="M36.0652 29.345L33.795 29.7587L31.5254 29.345L33.7921 28.7508L36.0652 29.345Z" fill="#B0B1C4"/>
<path fill-rule="evenodd" clip-rule="evenodd" d="M20.4015 4.45083C20.3069 4.33057 20.1602 4.25999 20.0045 4.25989C19.8488 4.25979 19.702 4.33019 19.6073 4.45034L16.4774 8.42064C16.3093 8.63382 16.3508 8.93914 16.57 9.10259C16.7892 9.26604 17.1031 9.22572 17.2712 9.01254L19.5041 6.18009V15.0983C19.5041 15.367 19.728 15.5847 20.0042 15.5847C20.2804 15.5847 20.5043 15.367 20.5043 15.0983V6.18314L22.7284 9.01204C22.8962 9.22543 23.2101 9.26614 23.4295 9.10297C23.6489 8.9398 23.6908 8.63453 23.523 8.42114L20.4015 4.45083ZM16.38 13.0603C16.6538 13.025 16.8464 12.7806 16.8101 12.5143C16.7739 12.248 16.5225 12.0606 16.2487 12.0959C14.2255 12.3564 12.463 12.8248 11.1906 13.4441C10.5549 13.7535 10.0188 14.1115 9.63579 14.5193C9.25009 14.9299 9 15.414 9 15.9551V29.1681C9 29.8669 9.41373 30.4651 10.0048 30.9449C10.5986 31.427 11.428 31.8393 12.409 32.1761C14.3754 32.8514 17.0593 33.2599 20 33.2599C20.7003 33.2599 21.3852 33.2367 22.0486 33.1925C22.3242 33.1741 22.5323 32.9419 22.5134 32.6739C22.4944 32.4059 22.2557 32.2036 21.9802 32.2219C21.3398 32.2647 20.6777 32.2871 20 32.2871C17.1418 32.2871 14.5758 31.8885 12.742 31.2588C11.8228 30.9432 11.1145 30.5787 10.6457 30.1981C10.1741 29.8152 10.0002 29.4649 10.0002 29.1681V24.2309L10.0048 24.2345C10.5986 24.7166 11.428 25.129 12.409 25.4658C14.3754 26.141 17.0593 26.5495 20 26.5495C22.9408 26.5495 25.6246 26.141 27.591 25.4658C28.572 25.129 29.4014 24.7166 29.9952 24.2345L29.9998 24.2309V24.5568C29.9998 24.8254 30.2237 25.0432 30.4999 25.0432C30.7761 25.0432 31 24.8254 31 24.5568V15.9551C31 14.891 30.0576 14.0613 28.8579 13.4679C27.6133 12.8523 25.8884 12.3836 23.9052 12.1162C23.6316 12.0793 23.379 12.2651 23.3411 12.5312C23.3032 12.7973 23.4942 13.0429 23.7678 13.0798C25.686 13.3384 27.2927 13.7851 28.4045 14.335C29.5611 14.9071 29.9998 15.4929 29.9998 15.9551C29.9998 16.2519 29.8259 16.6022 29.3543 16.9851C28.8855 17.3657 28.1772 17.7302 27.258 18.0459C25.4243 18.6755 22.8582 19.0741 20 19.0741C17.1418 19.0741 14.5758 18.6755 12.742 18.0459C11.8228 17.7302 11.1145 17.3657 10.6457 16.9851C10.1741 16.6022 10.0002 16.2519 10.0002 15.9551C10.0002 15.7233 10.1043 15.4628 10.3743 15.1754C10.6469 14.8852 11.068 14.5916 11.6382 14.3141C12.7778 13.7594 14.4223 13.3123 16.38 13.0603ZM10.0002 22.4578V17.7282L10.0048 17.7319C10.5986 18.214 11.428 18.6263 12.409 18.9632C14.3754 19.6384 17.0593 20.0469 20 20.0469C22.9408 20.0469 25.6246 19.6384 27.591 18.9632C28.572 18.6263 29.4014 18.214 29.9952 17.7319L29.9998 17.7282V22.4578C29.9998 22.7545 29.8259 23.1049 29.3543 23.4877C28.8855 23.8683 28.1772 24.2329 27.258 24.5485C25.4243 25.1782 22.8582 25.5768 20 25.5768C17.1418 25.5768 14.5758 25.1782 12.742 24.5485C11.8228 24.2329 11.1145 23.8683 10.6457 23.4877C10.1741 23.1049 10.0002 22.7545 10.0002 22.4578ZM12.5185 21.1413C12.5185 21.4755 12.2399 21.7465 11.8962 21.7465C11.5526 21.7465 11.274 21.4755 11.274 21.1413C11.274 20.8071 11.5526 20.5361 11.8962 20.5361C12.2399 20.5361 12.5185 20.8071 12.5185 21.1413ZM12.5185 27.8282C12.5185 28.1625 12.2399 28.4334 11.8962 28.4334C11.5526 28.4334 11.274 28.1625 11.274 27.8282C11.274 27.494 11.5526 27.2231 11.8962 27.2231C12.2399 27.2231 12.5185 27.494 12.5185 27.8282Z" fill="white"/>
</svg>
